Numix/16/emotes/face-crying.svg

<?xml version="1.0" encoding="UTF-8" standalone="no"?>
<svg
   xmlns:dc="http://purl.org/dc/elements/1.1/"
   xmlns:cc="http://creativecommons.org/ns#"
   xmlns:rdf="http://www.w3.org/1999/02/22-rdf-syntax-ns#"
   xmlns:svg="http://www.w3.org/2000/svg"
   xmlns="http://www.w3.org/2000/svg"
   xmlns:sodipodi="http://sodipodi.sourceforge.net/DTD/sodipodi-0.dtd"
   xmlns:inkscape="http://www.inkscape.org/namespaces/inkscape"
   width="16px"
   height="16px"
   viewBox="0 0 12 12"
   version="1.1"
   id="svg3006"
   inkscape:version="0.91 r"
   sodipodi:docname="face-crying.svg">
  <metadata
     id="metadata3023">
    <rdf:RDF>
      <cc:Work
         rdf:about="">
        <dc:format>image/svg+xml</dc:format>
        <dc:type
           rdf:resource="http://purl.org/dc/dcmitype/StillImage" />
      </cc:Work>
    </rdf:RDF>
  </metadata>
  <defs
     id="defs3021" />
  <sodipodi:namedview
     pagecolor="#ffffff"
     bordercolor="#666666"
     borderopacity="1"
     objecttolerance="10"
     gridtolerance="10"
     guidetolerance="10"
     inkscape:pageopacity="0"
     inkscape:pageshadow="2"
     inkscape:window-width="640"
     inkscape:window-height="480"
     id="namedview3019" />
  <g
     id="surface1">
    <path
       style=" stroke:none;fill-rule:nonzero;fill:rgb(100%,85.098039%,36.078431%);fill-opacity:1;"
       d="M 11.25 6 C 11.25 8.484375 8.898438 10.5 6 10.5 C 3.101562 10.5 0.75 8.484375 0.75 6 C 0.75 3.515625 3.097656 1.5 6 1.5 C 8.902344 1.5 11.25 3.515625 11.25 6 Z M 11.25 6 "
       id="path3009" />
    <path
       style=" stroke:none;fill-rule:nonzero;fill:rgb(38.823529%,38.823529%,38.823529%);fill-opacity:1;"
       d="M 3.75 8.625 C 3.9375 7.683594 4.886719 7.03125 6 7.03125 C 7.117188 7.03125 8.066406 7.683594 8.25 8.625 L 7.875 8.625 C 7.738281 8.0625 6.972656 7.683594 6 7.683594 C 5.03125 7.683594 4.261719 8.0625 4.125 8.625 Z M 3.75 8.625 "
       id="path3011" />
    <path
       style=" stroke:none;fill-rule:nonzero;fill:rgb(52.156863%,70.980392%,94.117647%);fill-opacity:1;"
       d="M 9.09375 7.101562 C 9.09375 7.359375 8.882812 7.570312 8.625 7.570312 C 8.367188 7.570312 8.15625 7.359375 8.15625 7.101562 C 8.15625 6.839844 8.625 6.007812 8.625 6.007812 C 8.625 6.007812 9.09375 6.839844 9.09375 7.101562 Z M 9.09375 7.101562 "
       id="path3013" />
    <path
       style=" stroke:none;fill-rule:nonzero;fill:rgb(39.607843%,39.607843%,39.607843%);fill-opacity:1;"
       d="M 7.394531 4.324219 C 7.222656 4.476562 7.125 4.691406 7.125 4.921875 C 7.125 5.363281 7.480469 5.71875 7.921875 5.71875 C 8.300781 5.71875 8.628906 5.453125 8.703125 5.078125 Z M 7.394531 4.324219 "
       id="path3015" />
    <path
       style=" stroke:none;fill-rule:nonzero;fill:rgb(39.607843%,39.607843%,39.607843%);fill-opacity:1;"
       d="M 4.660156 4.292969 L 3.382812 5.03125 C 3.4375 5.425781 3.773438 5.71875 4.171875 5.71875 C 4.613281 5.71875 4.96875 5.363281 4.96875 4.921875 C 4.96875 4.675781 4.855469 4.445312 4.660156 4.292969 Z M 4.660156 4.292969 "
       id="path3017" />
  </g>
</svg>

<svg xmlns="http://www.w3.org/2000/svg" width="16" height="16" viewBox="0 0 12 12">
 <g>
  <path d="m 11.25 6 c 0 2.484 -2.352 4.5 -5.25 4.5 c -2.898 0 -5.25 -2.02 -5.25 -4.5 c 0 -2.484 2.348 -4.5 5.25 -4.5 c 2.902 0 5.25 2.02 5.25 4.5 m 0 0" style="fill:#ffd85b;fill-opacity:1;stroke:none;fill-rule:nonzero"/>
  <path d="m 3.75 8.625 c 0.188 -0.941 1.137 -1.594 2.25 -1.594 c 1.117 0 2.066 0.652 2.25 1.594 l -0.375 0 c -0.137 -0.563 -0.902 -0.941 -1.875 -0.941 c -0.969 0 -1.738 0.379 -1.875 0.941 m -0.375 0" style="fill:#626262;fill-opacity:1;stroke:none;fill-rule:nonzero"/>
  <path d="m 9.09 7.102 c 0 0.258 -0.211 0.469 -0.469 0.469 c -0.258 0 -0.469 -0.211 -0.469 -0.469 c 0 -0.262 0.469 -1.094 0.469 -1.094 c 0 0 0.469 0.832 0.469 1.094 m 0 0" style="fill:#85b4ef;fill-opacity:1;stroke:none;fill-rule:nonzero"/>
  <path d="m 7.395 4.324 c -0.172 0.152 -0.27 0.367 -0.27 0.598 c 0 0.441 0.355 0.797 0.797 0.797 c 0.379 0 0.707 -0.266 0.781 -0.641 m -1.309 -0.754" style="fill:#646464;fill-opacity:1;stroke:none;fill-rule:nonzero"/>
  <path d="m 4.66 4.293 l -1.277 0.738 c 0.055 0.395 0.391 0.688 0.789 0.688 c 0.441 0 0.797 -0.355 0.797 -0.797 c 0 -0.246 -0.113 -0.477 -0.309 -0.629 m 0 0" style="fill:#646464;fill-opacity:1;stroke:none;fill-rule:nonzero"/>
 </g>
</svg>
